**kern	**kern	**dynam
*part1	*part1	*part1
*staff2	*staff1	*
*I"Piano	*	*
*clefF4	*clefG2	*
*k[b-e-a-]	*k[b-e-a-]	*
=1	=1	=1
8EE-L	4r	.
8BB-	.	.
8E-	(16ggLL	.
.	16ee-JJ)	.
8BB-J	8r	.
=	=	=
8DDL	4r	.
8BB-	.	.
8D	(16aa-LL	.
.	16ffJJ)	.
8BB-J	8r	.
=	=	=
8EE-L	8r	f
8E-	(16ggLL	.
.	16ee-JJ)	.
8GG	8r	.
8E-J	(16bb-LL	.
.	16ee-JJ)	.
=	=	=
8AA-L	8r	.
8E-	(16cccLL	.
.	16ee-JJ)	.
8C	8r	.
8E-J	(16aa-LL	.
.	16ee-JJ)	.
=	=	=
8BB-L 8B-	8r	p
8E-	(16gLL 16gg	.
.	16ee-JJ)	.
8BB- 8B-	8r	.
8E-J	(16gLL 16gg	.
.	16ee-JJ)	.
=	=	=
8BB-L 8A-	8r	.
8D	(16fLL 16ff	.
.	16b-JJ)	.
8BB- 8A-	8r	.
8DJ	(16fLL 16ff	.
.	16b-JJ)	.
=	=	=
8EE-L	8r	f
8E-	(16ggLL	.
.	16ee-JJ)	.
8GG	8r	.
8E-J	(16bb-LL	.
.	16ee-JJ)	.
=	=	=
8AA-L	8r	.
8E-	(16cccLL	.
.	16ee-JJ)	.
8C	8r	.
8E-J	(16aa-LL	.
.	16ee-JJ)	.
=	=	=
*-	*-	*-
!!!system-decoration: {(s1,s2)}
